X:539
T: Yongjunaimin naolianhuan
N: C1957
O: China,Jiangxi Ganzhou
S: IV, 196]
R: Xiaodiao, Dengge. Xiaobainian]
M: 2/4
L: 1/16
K: D
F2F2FABd | A8 |
FABdA2F2 | E2EDE4 |
F2A4FA | BABdA4 | F2E2A2FE | D8 |
F2FAEDEF | A8 |
E2D2E2A2 | F4FAFE | D8 |
F2EFA2D2 | E4FAEF | A8 |
E2D2E2A2 | F4EAFE | D8

@@@ Tune index: 7094
